src/public/img/landing/new/dev-friendly/5.svg

<svg width="64" height="64" viewBox="0 0 64 64" fill="none" xmlns="http://www.w3.org/2000/svg">
<rect width="64" height="64" rx="16" fill="url(#paint0_linear_2628_7093)"/>
<rect x="32" y="20" width="12" height="24" rx="2" stroke="white" stroke-width="2"/>
<path d="M24 24H22C20.8954 24 20 24.8954 20 26V38C20 39.1046 20.8954 40 22 40H24" stroke="white" stroke-width="2"/>
<path d="M30 22H28C26.8954 22 26 22.8954 26 24V40C26 41.1046 26.8954 42 28 42H30" stroke="white" stroke-width="2"/>
<defs>
<linearGradient id="paint0_linear_2628_7093" x1="32" y1="0" x2="32" y2="64" gradientUnits="userSpaceOnUse">
<stop stop-color="white" stop-opacity="0.16"/>
<stop offset="1" stop-color="white" stop-opacity="0.08"/>
</linearGradient>
</defs>
</svg>

<svg xmlns="http://www.w3.org/2000/svg" width="64" height="64" fill="none">
  <rect width="64" height="64" fill="url(#a)" rx="16"/>
  <rect width="12" height="24" x="32" y="20" stroke="#fff" stroke-width="2" rx="2"/>
  <path stroke="#fff" stroke-width="2" d="M24 24h-2a2 2 0 0 0-2 2v12a2 2 0 0 0 2 2h2m6-18h-2a2 2 0 0 0-2 2v16a2 2 0 0 0 2 2h2"/>
  <defs>
    <linearGradient id="a" x1="32" x2="32" y1="0" y2="64" gradientUnits="userSpaceOnUse">
      <stop stop-color="#fff" stop-opacity=".16"/>
      <stop offset="1" stop-color="#fff" stop-opacity=".08"/>
    </linearGradient>
  </defs>
</svg>
